src/assets/ikoner/altinn.svg

<?xml version="1.0" encoding="UTF-8"?>
<svg width="57px" height="42px" viewBox="0 0 57 42" version="1.1" xmlns="http://www.w3.org/2000/svg" xmlns:xlink="http://www.w3.org/1999/xlink">
    <!-- Generator: Sketch 55.2 (78181) - https://sketchapp.com -->
    <title>Group 10</title>
    <desc>Created with Sketch.</desc>
    <defs>
        <polygon id="path-1231" points="4.97379915e-14 -6.75015599e-14 56.4214136 -6.75015599e-14 56.4214136 42.4295903 4.97379915e-14 42.4295903"></polygon>
    </defs>
    <g id="-----↳-Info-side" stroke="none" stroke-width="1" fill="none" fill-rule="evenodd">
        <g id="Godkjent-avtale---se-hele-avtalen_ny-tekst" transform="translate(-279.000000, -738.000000)">
            <g id="Group-56" transform="translate(279.000000, 737.000000)">
                <g id="Group-3">
                    <g id="Group-10" transform="translate(0.282314, 0.229140)">
                        <mask id="mask-2123123123" fill="white">
                            <use xlink:href="#path-1231"></use>
                        </mask>
                        <g id="Clip-2"></g>
                        <path d="M37.6513839,0.770860125 C37.6621996,4.31396315 37.6049808,7.85906604 37.7159294,11.3995026 C37.764077,12.9334029 36.8143848,12.7947452 35.8270121,12.7370823 C34.8999981,12.6827525 33.6049,13.2100515 33.7158486,11.4518325 C33.8131903,9.90726624 33.6369983,8.34536776 33.7612049,6.80413461 C33.8864582,5.249569 33.4025409,4.67893942 31.6692307,4.72426981 C27.2679206,4.83959565 22.8596327,4.70493773 18.4572759,4.79559851 C17.0268065,4.82492993 16.6154593,4.36229334 16.7539706,3.09137595 C16.8373565,2.32742561 16.7358281,1.54514313 16.7176856,0.770860125 L37.6513839,0.770860125 Z" id="Fill-4" fill="#6DA2C4" mask="url(#mask-2123123123)"></path>
                        <path d="M55.4539733,4.71776062 C51.4828693,4.72471814 47.5099981,4.67270241 43.5413681,4.76911373 C42.0958523,4.80423263 41.6756278,4.31223672 41.7848367,3.06220268 C41.8512809,2.30548978 41.7459597,1.53519316 41.7176856,0.770860125 L55.5013325,0.770860125 C55.7469641,2.08914411 55.8473374,3.40610285 55.4539733,4.71776062" id="Fill-6" fill="#6DA2C4" mask="url(#mask-2123123123)"></path>
                        <path d="M5.67952125,0.770860125 C5.6798514,1.53645122 5.62009371,2.30799508 5.69437813,3.06631058 C5.81290305,4.27604372 5.5078417,4.83229609 4.11789768,4.76549289 C1.31687986,4.63023295 1.78569708,4.97615446 1.73683444,2.41117625 C1.72626955,1.86451445 1.72395848,1.31752193 1.71768557,0.770860125 L5.67952125,0.770860125 Z" id="Fill-8" fill="#6FA3C5" mask="url(#mask-2123123123)"></path>
                        <path d="M14.6528369,0.770860125 C14.6577558,1.4792961 14.5970889,2.19597737 14.6810388,2.89517861 C14.8443476,4.24806704 14.4951029,4.8592085 12.9564587,4.76059474 C10.761956,4.62009487 10.757365,4.73223092 10.7524461,2.56866482 C10.7511344,1.96939659 10.729819,1.37012836 10.7176856,0.770860125 L14.6528369,0.770860125 Z" id="Fill-10" fill="#6FA3C5" mask="url(#mask-2123123123)"></path>
                        <path d="M29.4190662,16.7895642 C31.7417028,16.7902302 34.0650377,16.824862 36.386627,16.7739133 C37.3714697,16.7522684 37.6703088,17.0855996 37.695794,18.0166626 C37.7705038,20.7469148 37.8130953,20.7469148 34.9901823,20.7475808 C29.4738766,20.7485798 23.9575709,20.719276 18.4419634,20.7705577 C17.1851632,20.7822127 16.6838395,20.4605364 16.7194489,19.1861523 C16.8018391,16.1974934 16.7885729,13.2045056 16.7222418,10.2151808 C16.6981531,9.13293662 17.0434241,8.66241016 18.1968874,8.80726438 C18.5393655,8.85022114 18.8986009,8.85388413 19.2400316,8.80759738 C20.4992756,8.6371023 21.0163093,9.04535809 20.9318244,10.3410541 C20.8169668,12.1066105 20.9412504,13.8851539 20.889931,15.6560384 C20.8644459,16.5304916 21.2051784,16.8175361 22.1034415,16.8028842 C24.5412848,16.7622584 26.9805246,16.7888982 29.4190662,16.7895642" id="Fill-20" fill="#6EA2C4" mask="url(#mask-2123123123)"></path>
                        <path d="M55.7176856,7.83096005 C55.7167536,9.12499223 55.7155111,10.4190244 55.7142685,11.7127263 C52.1965522,11.7193319 48.6763508,11.6446889 45.1623623,11.7685434 C43.5594467,11.8250211 43.7240872,10.8401298 43.7222234,9.77101748 C43.7206702,8.69695096 43.5684553,7.71701388 45.16609,7.77316127 C48.6800785,7.89569469 52.1999693,7.82369392 55.7176856,7.83096005" id="Fill-28" fill="#6EA2C5" mask="url(#mask-2123123123)"></path>
                        <path d="M55.7176856,16.8350735 C55.7074478,18.1288143 55.6975203,19.4222252 55.6869723,20.715636 C52.1729395,20.7219051 48.6570454,20.6506355 45.1467355,20.7687583 C43.5356847,20.8232003 43.7323737,19.8112383 43.7233769,18.7557226 C43.7146903,17.672491 43.5884247,16.715301 45.1780692,16.7733725 C48.6877587,16.9013938 52.2039631,16.8271547 55.7176856,16.8350735" id="Fill-30" fill="#6EA2C5" mask="url(#mask-2123123123)"></path>
                        <path d="M12.1525213,13.5863722 C9.80856785,14.2879021 9.91461444,12.8795586 9.74704464,11.2029592 C9.50864219,8.81548161 10.7500349,8.92603556 12.4573041,8.78906247 C14.7413534,8.60616072 14.6017119,9.82387995 14.7041157,11.4407315 C14.8389001,13.5770239 13.9682656,14.0907746 12.1525213,13.5863722" id="Fill-38" fill="#70A4C5" mask="url(#mask-2123123123)"></path>
                        <path d="M3.05666354,20.6003262 C0.790395513,21.2731103 0.92237586,19.8489629 0.749227332,18.1882677 C0.498989366,15.7883605 1.76874524,15.9317474 3.45623707,15.7903858 C5.74228197,15.5992033 5.57599481,16.8362187 5.69949935,18.437777 C5.86861178,20.6286795 4.84828666,20.9628438 3.05666354,20.6003262" id="Fill-40" fill="#70A4C6" mask="url(#mask-2123123123)"></path>
                        <path d="M9.89874499,18.2029266 C9.20435433,15.8547337 10.6162011,15.972915 12.2809582,15.801938 C14.6299895,15.560702 14.5769795,16.7490127 14.702423,18.4928972 C14.8663089,20.7688005 13.6919956,20.6680825 12.0640622,20.7598659 C9.97360645,20.8772349 9.39778016,20.05687 9.89874499,18.2029266" id="Fill-42" fill="#70A4C6" mask="url(#mask-2123123123)"></path>
                        <path d="M27.6816917,8.94936933 C29.3692971,8.35691649 29.7140414,9.31899159 29.7176856,11.2167112 C29.7209363,13.0383918 29.4786303,13.8426964 27.7923382,13.7658442 C26.3099377,13.6987511 25.6398204,13.3754841 25.7248573,11.3244668 C25.7974178,9.56540643 25.9005128,8.28453721 27.6816917,8.94936933" id="Fill-44" fill="#71A4C6" mask="url(#mask-2123123123)"></path>
                        <path d="M5.70332147,7.98499096 C5.70822628,8.1097987 5.71278076,8.23460644 5.71768557,8.35904925 C5.50012195,8.81704256 5.59821827,9.30788002 5.58910932,9.78521489 C5.5523232,11.6916349 5.54216323,11.5409168 3.62753327,11.7427258 C2.08356726,11.9058517 1.66946065,11.3693973 1.72201225,9.87717848 C1.79418311,7.82733908 1.75774733,7.78756117 4.00660547,7.81128194 C4.57206069,7.81748583 5.16624412,7.6393976 5.70332147,7.98499096" id="Fill-46" fill="#6DA2C4" mask="url(#mask-2123123123)"></path>
                        <path d="M3.89768557,43.0348601 C1.89568557,43.0348601 0.641685572,41.5828601 0.641685572,39.7348601 C0.641685572,37.4468601 2.46768557,36.1928601 6.77968557,35.7528601 C6.71368557,34.7848601 6.25168557,34.1688601 5.06368557,34.1688601 C4.13968557,34.1688601 3.23768557,34.5428601 2.18168557,35.1588601 L1.01568557,33.0248601 C2.40168557,32.1888601 3.96368557,31.5948601 5.67968557,31.5948601 C8.47368557,31.5948601 10.0136856,33.1788601 10.0136856,36.5228601 L10.0136856,42.7708601 L7.37368557,42.7708601 L7.15368557,41.6488601 L7.06568557,41.6488601 C6.14168557,42.4628601 5.12968557,43.0348601 3.89768557,43.0348601 Z M4.99768557,40.5268601 C5.72368557,40.5268601 6.20768557,40.1748601 6.77968557,39.6028601 L6.77968557,37.6888601 C4.49168557,37.9968601 3.74368557,38.6568601 3.74368557,39.4928601 C3.74368557,40.1968601 4.22768557,40.5268601 4.99768557,40.5268601 Z M15.7116856,43.0348601 C13.4896856,43.0348601 12.7416856,41.5828601 12.7416856,39.3828601 L12.7416856,27.3488601 L15.9756856,27.3488601 L15.9756856,39.5148601 C15.9756856,40.1968601 16.2836856,40.4168601 16.5476856,40.4168601 C16.6796856,40.4168601 16.7676856,40.4168601 16.9436856,40.3728601 L17.3396856,42.7708601 C16.9876856,42.9248601 16.4376856,43.0348601 15.7116856,43.0348601 Z M23.2356856,43.0348601 C20.5296856,43.0348601 19.4736856,41.3408601 19.4736856,38.8108601 L19.4736856,34.3888601 L17.9776856,34.3888601 L17.9776856,31.9908601 L19.6496856,31.8588601 L20.0236856,28.9548601 L22.7076856,28.9548601 L22.7076856,31.8588601 L25.3256856,31.8588601 L25.3256856,34.3888601 L22.7076856,34.3888601 L22.7076856,38.7668601 C22.7076856,39.9988601 23.2576856,40.5048601 24.1156856,40.5048601 C24.4676856,40.5048601 24.8636856,40.3948601 25.1496856,40.2848601 L25.6556856,42.6388601 C25.0836856,42.8148601 24.2916856,43.0348601 23.2356856,43.0348601 Z M27.4596856,42.7708601 L27.4596856,31.8588601 L30.6936856,31.8588601 L30.6936856,42.7708601 L27.4596856,42.7708601 Z M29.0656856,30.2528601 C27.9876856,30.2528601 27.1956856,29.5488601 27.1956856,28.5588601 C27.1956856,27.5688601 27.9876856,26.8868601 29.0656856,26.8868601 C30.1656856,26.8868601 30.9356856,27.5688601 30.9356856,28.5588601 C30.9356856,29.5488601 30.1656856,30.2528601 29.0656856,30.2528601 Z M33.5316856,42.7708601 L33.5316856,31.8588601 L36.1716856,31.8588601 L36.3916856,33.2448601 L36.4796856,33.2448601 C37.4036856,32.3648601 38.5036856,31.5948601 39.9776856,31.5948601 C42.3536856,31.5948601 43.3656856,33.2668601 43.3656856,35.9948601 L43.3656856,42.7708601 L40.1316856,42.7708601 L40.1316856,36.4128601 C40.1316856,34.8288601 39.7136856,34.3448601 38.7896856,34.3448601 C37.9756856,34.3448601 37.4696856,34.7188601 36.7656856,35.4008601 L36.7656856,42.7708601 L33.5316856,42.7708601 Z M46.1156856,42.7708601 L46.1156856,31.8588601 L48.7556856,31.8588601 L48.9756856,33.2448601 L49.0636856,33.2448601 C49.9876856,32.3648601 51.0876856,31.5948601 52.5616856,31.5948601 C54.9376856,31.5948601 55.9496856,33.2668601 55.9496856,35.9948601 L55.9496856,42.7708601 L52.7156856,42.7708601 L52.7156856,36.4128601 C52.7156856,34.8288601 52.2976856,34.3448601 51.3736856,34.3448601 C50.5596856,34.3448601 50.0536856,34.7188601 49.3496856,35.4008601 L49.3496856,42.7708601 L46.1156856,42.7708601 Z" id="altinn" fill="#6DA2C4" fill-rule="nonzero" mask="url(#mask-2123123123)"></path>
                    </g>
                </g>
            </g>
        </g>
    </g>
</svg>

<svg width="57" height="42" xmlns="http://www.w3.org/2000/svg" xmlns:xlink="http://www.w3.org/1999/xlink"><title></title><defs><path id="altinn_svg__a" d="M0 0h56.421v42.43H0z"/></defs><g transform="translate(.282 -.77)" fill="none" fill-rule="evenodd"><mask id="altinn_svg__b" fill="#fff"><use xlink:href="#altinn_svg__a"/></mask><path d="M37.651.77c.011 3.544-.046 7.09.065 10.63.048 1.533-.902 1.395-1.889 1.337-.927-.054-2.222.473-2.111-1.285.097-1.545-.079-3.107.045-4.648.125-1.554-.358-2.125-2.092-2.08-4.401.116-8.81-.02-13.212.072-1.43.029-1.842-.434-1.703-1.705.083-.764-.018-1.546-.036-2.32H37.65zm17.803 3.948c-3.971.007-7.944-.045-11.913.051-1.445.035-1.865-.457-1.756-1.707.066-.757-.039-1.527-.067-2.291H55.5c.246 1.318.346 2.635-.047 3.947" fill="#6DA2C4" mask="url(#altinn_svg__b)"/><path d="M5.68.77c0 .766-.06 1.538.014 2.296.119 1.21-.186 1.766-1.576 1.7-2.801-.136-2.332.21-2.381-2.355-.01-.546-.013-1.093-.02-1.64H5.68zm8.973 0c.005.71-.056 1.426.028 2.125.163 1.353-.186 1.964-1.725 1.866-2.194-.14-2.199-.029-2.204-2.192 0-.6-.022-1.199-.034-1.798h3.935z" fill="#6FA3C5" mask="url(#altinn_svg__b)"/><path d="M29.42 16.79c2.322 0 4.645.035 6.967-.016.984-.022 1.283.312 1.309 1.243.075 2.73.117 2.73-2.706 2.73-5.516.002-11.032-.028-16.548.024-1.257.011-1.758-.31-1.723-1.585.083-2.989.07-5.981.003-8.97-.024-1.083.321-1.554 1.475-1.409.342.043.702.047 1.043 0 1.26-.17 1.776.238 1.692 1.534-.115 1.766.01 3.544-.042 5.315-.026.874.315 1.162 1.213 1.147 2.438-.04 4.878-.014 7.316-.013" fill="#6EA2C4" mask="url(#altinn_svg__b)"/><path d="M55.718 7.831l-.004 3.882c-3.517.006-7.038-.068-10.552.056-1.603.056-1.438-.929-1.44-1.998-.001-1.074-.154-2.054 1.444-1.998 3.514.123 7.034.05 10.552.058m0 9.004l-.031 3.88c-3.514.007-7.03-.064-10.54.054-1.611.054-1.415-.958-1.424-2.013-.008-1.084-.135-2.04 1.455-1.983 3.51.128 7.026.054 10.54.062" fill="#6EA2C5" mask="url(#altinn_svg__b)"/><path d="M12.153 13.586c-2.344.702-2.238-.706-2.406-2.383-.238-2.388 1.003-2.277 2.71-2.414 2.284-.183 2.145 1.035 2.247 2.652.135 2.136-.736 2.65-2.551 2.145" fill="#70A4C5" mask="url(#altinn_svg__b)"/><path d="M3.057 20.6C.79 21.273.922 19.85.749 18.188c-.25-2.4 1.02-2.256 2.707-2.398 2.286-.19 2.12 1.046 2.243 2.648.17 2.19-.85 2.525-2.642 2.162m6.842-2.397c-.695-2.348.717-2.23 2.382-2.401 2.349-.241 2.296.947 2.421 2.69.164 2.277-1.01 2.176-2.638 2.268-2.09.117-2.666-.703-2.165-2.557" fill="#70A4C6" mask="url(#altinn_svg__b)"/><path d="M27.682 8.95c1.687-.593 2.032.369 2.036 2.267.003 1.821-.24 2.626-1.926 2.549-1.482-.067-2.152-.39-2.067-2.442.072-1.759.176-3.04 1.957-2.375" fill="#71A4C6" mask="url(#altinn_svg__b)"/><path d="M5.703 7.985l.015.374c-.218.458-.12.949-.129 1.426-.037 1.907-.047 1.756-1.961 1.958-1.544.163-1.959-.374-1.906-1.866.072-2.05.036-2.09 2.285-2.066.565.006 1.16-.172 1.696.174" fill="#6DA2C4" mask="url(#altinn_svg__b)"/><path d="M3.898 43.035c-2.002 0-3.256-1.452-3.256-3.3 0-2.288 1.826-3.542 6.138-3.982-.066-.968-.528-1.584-1.716-1.584-.924 0-1.826.374-2.882.99l-1.166-2.134c1.386-.836 2.948-1.43 4.664-1.43 2.794 0 4.334 1.584 4.334 4.928v6.248h-2.64l-.22-1.122h-.088c-.924.814-1.936 1.386-3.168 1.386zm1.1-2.508c.726 0 1.21-.352 1.782-.924v-1.914c-2.288.308-3.036.968-3.036 1.804 0 .704.484 1.034 1.254 1.034zm10.714 2.508c-2.222 0-2.97-1.452-2.97-3.652V27.349h3.234v12.166c0 .682.308.902.572.902.132 0 .22 0 .396-.044l.396 2.398c-.352.154-.902.264-1.628.264zm7.524 0c-2.706 0-3.762-1.694-3.762-4.224v-4.422h-1.496V31.99l1.672-.132.374-2.904h2.684v2.904h2.618v2.53h-2.618v4.378c0 1.232.55 1.738 1.408 1.738.352 0 .748-.11 1.034-.22l.506 2.354c-.572.176-1.364.396-2.42.396zm4.224-.264V31.859h3.234V42.77H27.46zm1.606-12.518c-1.078 0-1.87-.704-1.87-1.694s.792-1.672 1.87-1.672c1.1 0 1.87.682 1.87 1.672 0 .99-.77 1.694-1.87 1.694zm4.466 12.518V31.859h2.64l.22 1.386h.088c.924-.88 2.024-1.65 3.498-1.65 2.376 0 3.388 1.672 3.388 4.4v6.776h-3.234v-6.358c0-1.584-.418-2.068-1.342-2.068-.814 0-1.32.374-2.024 1.056v7.37h-3.234zm12.584 0V31.859h2.64l.22 1.386h.088c.924-.88 2.024-1.65 3.498-1.65 2.376 0 3.388 1.672 3.388 4.4v6.776h-3.234v-6.358c0-1.584-.418-2.068-1.342-2.068-.814 0-1.32.374-2.024 1.056v7.37h-3.234z" fill="#6DA2C4" fill-rule="nonzero" mask="url(#altinn_svg__b)"/></g></svg>
